X: 6
T: Missa Coda di pavon / Kyrie
N: Derived from Mar1002a-Missa_Coda_di_pavon-Kyrie.krn
C: Johannes Martini
%%abc-version 2.0
%%abcx-abcm2ps-target-version 5.9.1 (29 Sep 2008)
%%abc-creator hum2abc beta
%%abcx-conversion-date 2019/02/17 07:19:40
%%abc-edited-by Jesse Rodin
%%abc-edited-by Chris Gage 10-31-2013
%%abcx-initial-encoding-date 2014/06/20/
%%humdrum-veritas 2431130866
%%humdrum-veritas-data 1913674372
%%linebreak <none>
%%barnumbers 0
L: 1/4
M: 4/2
Q: 1/2=120
%%staves [1 2 3 4]
V: 1 clef=treble
V: 2 clef=treble-8
V: 3 clef=treble-8
V: 4 clef=bass
K: C
[V:1] G8 | 
[V:2] d4e2d2- | 
[V:3] g8 | 
[V:4] G,8 | 
[V:1] A8 | 
[V:2] d2cBA2d2- | 
[V:3] f8 | 
[V:4] D,8 | 
[V:1] B3ABcd2- | 
[V:2] d2e2g2a2- | 
[V:3] g6f2 | 
[V:4] G,4E,2D,2 | 
[V:1] dcc4B2 | 
[V:2] agfeg4 | 
[V:3] e2c2d4 | 
[V:4] A,4G,4 | 
[V:1] c2BAG2c2 | 
[V:2] e4c4 | 
[V:3] c3de4 | 
[V:4] C,8 | 
[V:1] B2AGF2G2- | 
[V:2] d2e2f2d2- | 
[V:3] d2d4cB | 
[V:4] G,4D,4- | 
[V:1] G2^F2G4- | 
[V:2] dcd2B2e2- | 
[V:3] A4G4 | 
[V:4] D,4E,4- | 
[V:1] G4z2D2 | 
[V:2] e2d4g2- | 
[V:3] B8 | 
[V:4] E,2F,2G,4 | 
[V:1] E2DCD4 | 
[V:2] g2a2g4- | 
[V:3] c4z2B2 | 
[V:4] C,4G,4 | 
[V:1] E3FG2A2 | 
[V:2] g4c4 | 
[V:3] c3de2f2 | 
[V:4] C,4z2F,2 | 
[V:1] B2c2d2e2- | 
[V:2] B2G2A2c2- | 
[V:3] d2e2f2g2- | 
[V:4] G,2E,2D,2C,2 | 
[V:1] ecc4B2 | 
[V:2] cdefg4 | 
[V:3] gfe2d4 | 
[V:4] C4G,4 | 
[V:1] c8 ||  
[V:2] g8 ||  
[V:3] c8 ||  
[V:4] C,8 ||  
[V:1]  [K:C] [K:clef=treble][M:4/2]G4A4 | 
[V:2]  [K:C] [K:clef=treble-8][M:4/2]d8 | 
[V:3]  [K:C] [K:clef=treble-8][M:4/2]g4f4 | 
[V:4]  [K:C] [K:clef=bass][M:4/2]G,4D,4 | 
[V:1] B4c4- | 
[V:2] d4f4 | 
[V:3] g4c4 | 
[V:4] G,4A,4 | 
[V:1] c2BAB4 | 
[V:2] g8- | 
[V:3] d8 | 
[V:4] G,8 | 
[V:1] c6BA | 
[V:2] g8 | 
[V:3] c8 | 
[V:4] C,8 | 
[V:1] G4B4 | 
[V:2] e4g4 | 
[V:3] c4d4- | 
[V:4] C,4G,4 | 
[V:1] A2c2B2G2- | 
[V:2] a2f2g2e2 | 
[V:3] d2c2d2B2 | 
[V:4] F,2A,2G,4 | 
[V:1] G2^F2G4 | 
[V:2] d4B4 | 
[V:3] A4G4 | 
[V:4] D,4G,4 | 
[V:1] z4D4 | 
[V:2] d4g4 | 
[V:3] B8 | 
[V:4] G,8 | 
[V:1] E6DC | 
[V:2] g8- | 
[V:3] c6BA | 
[V:4] C,8 | 
[V:1] D6E2- | 
[V:2] g8 | 
[V:3] B6c2- | 
[V:4] G,6C,2 | 
[V:1] E2F2G2A2 | 
[V:2] z4c4- | 
[V:3] c2d2e2f2 | 
[V:4] E,2D,2C,2F,2 | 
[V:1] B2c4B2 | 
[V:2] c2g6 | 
[V:3] g2e2d4 | 
[V:4] E,2C,2G,4 | 
[V:1] c4G2c2- | 
[V:2] e6c2- | 
[V:3] c8- | 
[V:4] A,3G,E,2A,2- | 
[V:1] cBA4GF | 
[V:2] c4f4 | 
[V:3] c8- | 
[V:4] A,G,F,4E,D, | 
[V:1] !fermata!E8 ||  
[V:2] !fermata!g8 ||  
[V:3] !fermata!c8 ||  
[V:4] !fermata!C,8 ||  
[V:1]  [K:C] [K:clef=treble][M:4/2]D4E2E2 | 
[V:2]  [K:C] [K:clef=treble-8][M:4/2]z8 | 
[V:3]  [K:C] [K:clef=treble-8][M:4/2]z4c4 | 
[V:4]  [K:C] [K:clef=bass][M:4/2]z8 | 
[V:1] D4C2G2- | 
[V:2] z8 | 
[V:3] B2B2c2BA | 
[V:4] z4C,3D, | 
[V:1] G2FED4 | 
[V:2] z8 | 
[V:3] G2A2B4 | 
[V:4] E,2F,2G,4 | 
[V:1] C4z2G2 | 
[V:2] z4c4 | 
[V:3] c2e4c2 | 
[V:4] C,4C4 | 
[V:1] A2c2B2AG | 
[V:2] c4d4 | 
[V:3] f2e2g2fe | 
[V:4] A,4G,3F, | 
[V:1] AGFED2A2- | 
[V:2] d4d2f2- | 
[V:3] fedcB2c2- | 
[V:4] D,4G,2F,2- | 
[V:1] AGG4^F2 | 
[V:2] f2e2d4 | 
[V:3] c2B2A4 | 
[V:4] F,2G,2D,4 | 
[V:1] G4z2A2 | 
[V:2] z2g4f2 | 
[V:3] G4c4 | 
[V:4] E,4C,2F,2 | 
[V:1] B2d4^c2 | 
[V:2] d2g2a4 | 
[V:3] z2d2e4 | 
[V:4] G,2_B,2A,4 | 
[V:1] d4z2e2 | 
[V:2] f2a3ga2 | 
[V:3] f3ec4 | 
[V:4] D,4A,4 | 
[V:1] f3ed2c2 | 
[V:2] f2d4g2 | 
[V:3] z2d2f2e2 | 
[V:4] D,4_B,,2C,2 | 
[V:1] f2e2c2d2- | 
[V:2] f2g4a2 | 
[V:3] d2c2e2f2 | 
[V:4] D,2E,4D,2 | 
[V:1] d2e2df2e | 
[V:2] d2c2d2f2 | 
[V:3] g4f4 | 
[V:4] G,2C,2z2D,2 | 
[V:1] dcc4B2 | 
[V:2] e2a2g4 | 
[V:3] g2fed4 | 
[V:4] E,2F,2G,4 | 
[V:1] c8 |]  
[V:2] e8 |]  
[V:3] c8 |]  
[V:4] C,8 |]  



